readme/logo.svg

<svg width="182" height="182" xmlns="http://www.w3.org/2000/svg" fill="none">
 <defs>
  <clipPath id="clip0_59_0">
   <rect width="182" height="182" fill="white" id="svg_1"/>
  </clipPath>
 </defs>
 <g>
  <title>Layer 1</title>
  <g clip-path="url(#clip0_59_0)" id="svg_2">
   <path d="m74.3169,41.9465c2.9447,0 5.332,-2.3873 5.332,-5.3319c0,-3.4779 0.7191,-4.4543 2.1523,-6.4005c4.0047,-5.4382 6.4499,-9.9832 6.4499,-17.0445c0,-3.97902 -1.2676,-7.41208 -2.372,-9.95791c-1.172,-2.70152 -4.3128,-3.94244 -7.0133,-2.76941c-2.7015,1.17196 -3.9414,4.31177 -2.7698,7.01329c0.6943,1.60029 1.4912,3.69613 1.4912,5.71373c0,4.4571 -1.6383,7.0062 -4.3729,10.7211c-1.8843,2.559 -4.2289,5.7432 -4.2289,12.7238c-0.0004,2.945 2.3869,5.3323 5.3315,5.3323l0,0z" fill="#ffffff" id="svg_3" stroke="#000"/>
   <path d="m99.0807,41.9464c2.9443,0 5.3323,-2.3872 5.3323,-5.3319c0,-3.4775 0.719,-4.4543 2.152,-6.4005c4.011,-5.4471 6.45,-9.9974 6.45,-17.0444c0,-3.97873 -1.268,-7.41144 -2.372,-9.95762c-1.171,-2.70188 -4.312,-3.94173 -7.013,-2.77013c-2.702,1.17197 -3.9414,4.31177 -2.77,7.01329c0.694,1.60065 1.491,3.69646 1.491,5.71406c0,4.4536 -1.634,7.0001 -4.3725,10.7215c-1.8844,2.5586 -4.229,5.7429 -4.229,12.7234c-0.0007,2.9451 2.3866,5.3323 5.3312,5.3323l0,0z" fill="#ffffff" id="svg_4" stroke="#000"/>
   <path d="m123.088,148.606l-5.353,-18.864c-3.273,1.449 -6.645,2.627 -10.084,3.529l5.18,18.254c-4.38,3.015 -7.258,8.06 -7.258,13.767c0,9.212 7.495,16.707 16.707,16.707c9.212,0 16.707,-7.495 16.707,-16.707c0,-8.941 -7.061,-16.263 -15.899,-16.686l0,0z" fill="#ffffff" id="svg_5" stroke="#000"/>
   <path d="m90.9997,124.769c20.6783,0 38.9133,-11.514 49.5053,-28.9194l-99.0113,0c10.5928,17.4054 28.8277,28.9194 49.506,28.9194l0,0z" fill="#ffffff" id="svg_6" stroke="#000"/>
   <path d="m159.249,51.5439l-136.4981,0c-2.9447,0 -5.332,2.3873 -5.332,5.332c0,2.9447 2.3873,5.3319 5.332,5.3319l9.0529,0c0.1646,8.1185 1.7358,15.869 4.4593,22.9779l109.4739,0c2.723,-7.1089 4.294,-14.8594 4.459,-22.9779l9.053,0c2.944,0 5.332,-2.3872 5.332,-5.3319c0,-2.9447 -2.388,-5.332 -5.332,-5.332z" fill="#ffffff" id="svg_7" stroke="#000"/>
   <path d="m54.5326,175.429c-0.7984,3.345 1.7378,6.571 5.1908,6.571c2.4111,0 4.5976,-1.647 5.1819,-4.096l10.5829,-44.338c-3.4622,-0.842 -6.8597,-1.967 -10.1613,-3.36l-10.7943,45.223z" fill="#ffffff" id="svg_8" stroke="#000"/>
   <path d="m85.668,135.206l0,41.461c0,2.945 2.3873,5.332 5.3319,5.332c2.9447,0 5.332,-2.387 5.332,-5.332l0,-41.461c-3.6912,0.302 -6.9653,0.303 -10.6639,0l0,0z" fill="#ffffff" id="svg_9" stroke="#000"/>
  </g>
 </g>
</svg>

<svg width="182" height="182" viewBox="0 0 182 182" fill="none" xmlns="http://www.w3.org/2000/svg">
<g clip-path="url(#clip0_59_0)">
<path d="M74.3169 41.9465C77.2616 41.9465 79.6489 39.5592 79.6489 36.6146C79.6489 33.1367 80.368 32.1603 81.8012 30.2141C85.8059 24.7759 88.2511 20.2309 88.2511 13.1696C88.2511 9.19058 86.9835 5.75752 85.8791 3.21169C84.7071 0.510172 81.5663 -0.73075 78.8658 0.442279C76.1643 1.61424 74.9244 4.75405 76.096 7.45557C76.7903 9.05586 77.5872 11.1517 77.5872 13.1693C77.5872 17.6264 75.9489 20.1755 73.2143 23.8904C71.33 26.4494 68.9854 29.6336 68.9854 36.6142C68.985 39.5592 71.3723 41.9465 74.3169 41.9465V41.9465Z" fill="white"/>
<path d="M99.0807 41.9464C102.025 41.9464 104.413 39.5592 104.413 36.6145C104.413 33.137 105.132 32.1602 106.565 30.214C110.576 24.7669 113.015 20.2166 113.015 13.1696C113.015 9.19087 111.747 5.75816 110.643 3.21198C109.472 0.510103 106.331 -0.729752 103.63 0.441854C100.928 1.61382 99.6886 4.75362 100.86 7.45514C101.554 9.05579 102.351 11.1516 102.351 13.1692C102.351 17.6228 100.717 20.1693 97.9785 23.8907C96.0941 26.4493 93.7495 29.6336 93.7495 36.6141C93.7488 39.5592 96.1361 41.9464 99.0807 41.9464V41.9464Z" fill="white"/>
<path d="M123.088 148.606L117.735 129.742C114.462 131.191 111.09 132.369 107.651 133.271L112.831 151.525C108.451 154.54 105.573 159.585 105.573 165.292C105.573 174.504 113.068 181.999 122.28 181.999C131.492 181.999 138.987 174.504 138.987 165.292C138.987 156.351 131.926 149.029 123.088 148.606V148.606Z" fill="white"/>
<path d="M90.9997 124.769C111.678 124.769 129.913 113.255 140.505 95.8496H41.4937C52.0865 113.255 70.3214 124.769 90.9997 124.769V124.769Z" fill="white"/>
<path d="M159.249 51.5439H22.7509C19.8062 51.5439 17.4189 53.9312 17.4189 56.8759C17.4189 59.8206 19.8062 62.2078 22.7509 62.2078H31.8038C31.9684 70.3263 33.5396 78.0768 36.2631 85.1857H145.737C148.46 78.0768 150.031 70.3263 150.196 62.2078H159.249C162.193 62.2078 164.581 59.8206 164.581 56.8759C164.581 53.9312 162.193 51.5439 159.249 51.5439Z" fill="white"/>
<path d="M54.5326 175.429C53.7342 178.774 56.2704 182 59.7234 182C62.1345 182 64.321 180.353 64.9053 177.904L75.4882 133.566C72.026 132.724 68.6285 131.599 65.3269 130.206L54.5326 175.429Z" fill="white"/>
<path d="M85.668 135.206V176.667C85.668 179.612 88.0553 181.999 90.9999 181.999C93.9446 181.999 96.3319 179.612 96.3319 176.667V135.206C92.6407 135.508 89.3666 135.509 85.668 135.206V135.206Z" fill="white"/>
</g>
<defs>
<clipPath id="clip0_59_0">
<rect width="182" height="182" fill="black"/>
</clipPath>
</defs>
</svg>
